coco/_inc/system.svg

<?xml version="1.0" encoding="UTF-8" standalone="no"?>
<!-- Generator: Adobe Illustrator 16.0.3, SVG Export Plug-In . SVG Version: 6.00 Build 0)  -->

<svg
   xmlns:dc="http://purl.org/dc/elements/1.1/"
   xmlns:cc="http://creativecommons.org/ns#"
   xmlns:rdf="http://www.w3.org/1999/02/22-rdf-syntax-ns#"
   xmlns:svg="http://www.w3.org/2000/svg"
   xmlns="http://www.w3.org/2000/svg"
   xmlns:sodipodi="http://sodipodi.sourceforge.net/DTD/sodipodi-0.dtd"
   xmlns:inkscape="http://www.inkscape.org/namespaces/inkscape"
   version="1.1"
   id="Ebene_1"
   x="0px"
   y="0px"
   width="343.64014"
   height="70.467651"
   viewBox="0 0 343.64012 70.467654"
   enable-background="new 0 0 566.929 87.964"
   xml:space="preserve"
   inkscape:version="0.48.5 r10040"
   sodipodi:docname="coco.svg"><metadata
   id="metadata61"><rdf:RDF><cc:Work
       rdf:about=""><dc:format>image/svg+xml</dc:format><dc:type
         rdf:resource="http://purl.org/dc/dcmitype/StillImage" /><dc:title></dc:title></cc:Work></rdf:RDF></metadata><defs
   id="defs59"><inkscape:path-effect
     effect="spiro"
     id="path-effect4001"
     is_visible="true" /><inkscape:path-effect
     effect="spiro"
     id="path-effect3993"
     is_visible="true" /><inkscape:path-effect
     effect="spiro"
     id="path-effect3910"
     is_visible="true" /><inkscape:path-effect
     effect="spiro"
     id="path-effect3906"
     is_visible="true" /><inkscape:path-effect
     effect="spiro"
     id="path-effect3902"
     is_visible="true" /><inkscape:path-effect
     effect="spiro"
     id="path-effect3898"
     is_visible="true" /><inkscape:path-effect
     effect="spiro"
     id="path-effect3846"
     is_visible="true" /><inkscape:path-effect
     effect="spiro"
     id="path-effect3842"
     is_visible="true" /><inkscape:path-effect
     effect="spiro"
     id="path-effect3838"
     is_visible="true" /><inkscape:path-effect
     effect="spiro"
     id="path-effect4001-2"
     is_visible="true" /><inkscape:path-effect
     effect="spiro"
     id="path-effect4001-2-5"
     is_visible="true" /><inkscape:path-effect
     effect="spiro"
     id="path-effect4001-2-5-1"
     is_visible="true" /></defs><sodipodi:namedview
   pagecolor="#ffffff"
   bordercolor="#666666"
   borderopacity="1"
   objecttolerance="10"
   gridtolerance="10"
   guidetolerance="10"
   inkscape:pageopacity="0"
   inkscape:pageshadow="2"
   inkscape:window-width="1366"
   inkscape:window-height="706"
   id="namedview57"
   showgrid="false"
   showguides="true"
   inkscape:guide-bbox="true"
   fit-margin-top="0"
   fit-margin-left="0"
   fit-margin-right="0"
   fit-margin-bottom="0"
   inkscape:zoom="1.4142136"
   inkscape:cx="231.6025"
   inkscape:cy="39.281553"
   inkscape:window-x="-8"
   inkscape:window-y="-8"
   inkscape:window-maximized="1"
   inkscape:current-layer="Ebene_1" />

<g
   id="g4569"
   transform="matrix(0.81916268,0,0,0.81916268,-1.6623689e-5,0)"><path
     inkscape:connector-curvature="0"
     inkscape:original-d="m 333.43068,86.023995 34.39609,0 51.67494,-86.0239913326731 -34.38444,0 z"
     inkscape:path-effect="#path-effect4001-2"
     id="path3999-4"
     d="m 333.43068,86.023995 34.39609,0 51.67494,-86.0239913326731 -34.38444,0 L 333.43068,86.023995"
     style="fill:#498cc1;fill-opacity:1;stroke:none" /><path
     id="path3912-8"
     d="m 134.99998,23.46875 0,46.875 28.125,0 c 8.74937,-1.435037 13.75295,-6.336474 15.65625,-14.0625 0.0175,-6.255304 0.003,-12.494669 0,-18.75 -1.9033,-7.726026 -6.90688,-12.627462 -15.65625,-14.0625 l -28.125,0 z m 11,9.40625 12.46875,0 c 3.9161,0.694632 7.63206,1.922577 9.40625,7.8125 l -0.0312,12.5 c -1.7896,5.881358 -5.4902,7.117868 -9.4063,7.8125 l -12.46875,0 0.0312,-28.125 z"
     style="fill:#000000;fill-opacity:1;stroke:#000000;stroke-width:1.11043465px;stroke-linecap:butt;stroke-linejoin:miter;stroke-opacity:1"
     inkscape:connector-curvature="0" /><path
     inkscape:connector-curvature="0"
     inkscape:original-d="m 14.639798,70.353531 0,-35.925714 -14.07128834,0 -0.004331,-10.935179 43.77975934,0 -4.693319,10.935179 -10.943856,0.0043 0,35.921377 z"
     inkscape:path-effect="#path-effect3898"
     id="path3896"
     d="m 14.639798,70.353531 0,-35.925714 -14.07128834,0 -0.004331,-10.935179 43.77975934,0 -4.693319,10.935179 -10.943856,0.0043 0,35.921377 -14.066965,3.7e-5"
     style="fill:#000000;fill-opacity:1;stroke:#000000;stroke-width:1.11043465px;stroke-linecap:butt;stroke-linejoin:miter;stroke-opacity:1" /><path
     id="path3900"
     d="m 49.031233,23.5 -17.1875,46.84375 14.09375,0 5.4375,-17.15625 5.46875,7.8125 9.375,0 3.125,9.34375 14.1875,0 -17.3125,-46.84375 -17.1875,0 z m 8.53125,12.46875 5.53125,14.09375 -10.9375,0 5.40625,-14.09375 z"
     style="fill:#000000;fill-opacity:1;stroke:#000000;stroke-width:1.11043465px;stroke-linecap:butt;stroke-linejoin:miter;stroke-opacity:1"
     inkscape:connector-curvature="0" /><path
     inkscape:connector-curvature="0"
     inkscape:original-d="m 84.95721,70.353531 0,-46.860893 17.22477,0 17.19456,34.380961 0,-34.380961 10.94367,0 -0.009,46.860893 -17.19202,0 -17.196758,-34.351152 -0.0044,34.351152 z"
     inkscape:path-effect="#path-effect3910"
     id="path3908"
     d="m 84.95721,70.353531 0,-46.860893 17.22477,0 17.19456,34.380961 0,-34.380961 10.94367,0 -0.009,46.860893 -17.19202,0 -17.196758,-34.351152 -0.0044,34.351152 -10.960822,0"
     style="fill:#000000;fill-opacity:1;stroke:#000000;stroke-width:1.11043465px;stroke-linecap:butt;stroke-linejoin:miter;stroke-opacity:1" /><path
     sodipodi:nodetypes="cccccccccc"
     inkscape:connector-curvature="0"
     inkscape:original-d="m 191.27104,48.512593 -18.74565,-25.019955 14.05901,0 10.19528,15.597603 10.14621,-15.597603 15.60376,0 -18.80379,24.941709 0.0346,21.919184 -12.47726,0 z"
     inkscape:path-effect="#path-effect3993"
     id="path3991"
     d="m 191.27104,48.512593 -18.74565,-25.019955 14.05901,0 10.19528,15.597603 10.14621,-15.597603 15.60376,0 -18.80379,24.941709 0.0346,21.919184 -12.47726,0 -0.0122,-21.840938"
     style="fill:#000000;fill-opacity:1;stroke:#000000;stroke-width:1.11043465px;stroke-linecap:butt;stroke-linejoin:miter;stroke-opacity:1" /><path
     inkscape:connector-curvature="0"
     inkscape:original-d="m 288.27612,86.023995 34.39609,0 L 374.34715,0 339.96271,0 z"
     inkscape:path-effect="#path-effect4001-2-5"
     id="path3999-4-5"
     d="m 288.27612,86.023995 34.39609,0 L 374.34715,0 339.96271,0 288.27612,86.023995"
     style="fill:#197123;fill-opacity:1;stroke:none" /><path
     inkscape:connector-curvature="0"
     inkscape:original-d="m 243.12157,86.024002 34.39609,0 L 329.1926,3.6673269e-6 l -34.38444,0 z"
     inkscape:path-effect="#path-effect4001-2-5-1"
     id="path3999-4-5-7"
     d="m 243.12157,86.024002 34.39609,0 L 329.1926,3.6673269e-6 l -34.38444,0 L 243.12157,86.024002"
     style="fill:#ae1f19;fill-opacity:1;stroke:none" /></g><flowRoot
   xml:space="preserve"
   id="flowRoot4066"
   style="font-size:40px;font-style:normal;font-weight:normal;line-height:125%;letter-spacing:0px;word-spacing:0px;fill:#000000;fill-opacity:1;stroke:none;font-family:Open Sans Light;-inkscape-font-specification:Open Sans Light"
   transform="translate(-94.313277,-12.248728)"><flowRegion
     id="flowRegion4068"><rect
       id="rect4070"
       width="185.5"
       height="41"
       x="377"
       y="24.963997" /></flowRegion><flowPara
     id="flowPara4072">Cooccc</flowPara></flowRoot><text
   xml:space="preserve"
   style="font-size:40px;font-style:normal;font-weight:normal;line-height:125%;letter-spacing:0px;word-spacing:0px;fill:#000000;fill-opacity:1;stroke:none;font-family:Open Sans Light;-inkscape-font-specification:Open Sans Light"
   x="295.30255"
   y="32.581753"
   id="text4074"
   sodipodi:linespacing="125%"><tspan
     sodipodi:role="line"
     id="tspan4076"
     x="295.30255"
     y="32.581753"
     style="font-style:normal;font-variant:normal;font-weight:normal;font-stretch:normal;font-family:Ebrima;-inkscape-font-specification:Ebrima" /></text>

</svg>

<svg xmlns="http://www.w3.org/2000/svg" width="343.64" height="70.468" xml:space="preserve"><path d="M333.43 86.024h34.397L419.502 0h-34.385l-51.686 86.024" style="fill:#498cc1;fill-opacity:1;stroke:none" transform="matrix(.81916 0 0 .81916 0 0)"/><path d="M135 23.469v46.875h28.125c8.75-1.435 13.753-6.337 15.656-14.063.018-6.255.003-12.494 0-18.75-1.903-7.726-6.907-12.627-15.656-14.062H135zm11 9.406h12.469c3.916.695 7.632 1.923 9.406 7.813l-.031 12.5c-1.79 5.88-5.49 7.117-9.407 7.812H145.97l.03-28.125zM14.64 70.354V34.428H.569L.564 23.493h43.78L39.65 34.428l-10.944.004v35.921H14.64M49.031 23.5 31.844 70.344h14.093l5.438-17.156L56.844 61h9.375l3.125 9.344H83.53L66.22 23.5H49.03zm8.531 12.469 5.532 14.093H52.156l5.406-14.093zM84.957 70.354V23.493h17.225l17.195 34.38v-34.38h10.943l-.009 46.86H113.12l-17.197-34.35-.004 34.35h-10.96" style="fill:#000;fill-opacity:1;stroke:#000;stroke-width:1.11043465px;stroke-linecap:butt;stroke-linejoin:miter;stroke-opacity:1" transform="matrix(.81916 0 0 .81916 0 0)"/><path d="m191.271 48.513-18.746-25.02h14.06L196.78 39.09l10.146-15.597h15.604l-18.804 24.941.034 21.92h-12.477l-.012-21.841" style="fill:#000;fill-opacity:1;stroke:#000;stroke-width:1.11043465px;stroke-linecap:butt;stroke-linejoin:miter;stroke-opacity:1" transform="matrix(.81916 0 0 .81916 0 0)"/><path d="M288.276 86.024h34.396L374.347 0h-34.384l-51.687 86.024" style="fill:#197123;fill-opacity:1;stroke:none" transform="matrix(.81916 0 0 .81916 0 0)"/><path d="M243.122 86.024h34.396L329.193 0h-34.385l-51.686 86.024" style="fill:#ae1f19;fill-opacity:1;stroke:none" transform="matrix(.81916 0 0 .81916 0 0)"/><text xml:space="preserve" style="font-size:40px;font-style:normal;font-weight:400;line-height:125%;letter-spacing:0;word-spacing:0;fill:#000;fill-opacity:1;stroke:none;font-family:Open Sans Light;-inkscape-font-specification:Open Sans Light" x="295.303" y="32.582"/></svg>
